images/img-benefits.svg

<?xml version="1.0" encoding="UTF-8" standalone="no"?>
<svg width="574px" height="578px" viewBox="0 0 574 578" version="1.1" xmlns="http://www.w3.org/2000/svg" xmlns:xlink="http://www.w3.org/1999/xlink">
    <!-- Generator: Sketch 50.2 (55047) - http://www.bohemiancoding.com/sketch -->
    <title>001-portfolio</title>
    <desc>Created with Sketch.</desc>
    <defs>
        <filter x="-19.8%" y="-16.3%" width="139.5%" height="145.7%" filterUnits="objectBoundingBox" id="filter-1">
            <feOffset dx="0" dy="30" in="SourceAlpha" result="shadowOffsetOuter1"></feOffset>
            <feGaussianBlur stdDeviation="30" in="shadowOffsetOuter1" result="shadowBlurOuter1"></feGaussianBlur>
            <feColorMatrix values="0 0 0 0 0.305882353   0 0 0 0 0.450980392   0 0 0 0 0.874509804  0 0 0 0.4 0" type="matrix" in="shadowBlurOuter1" result="shadowMatrixOuter1"></feColorMatrix>
            <feMerge>
                <feMergeNode in="shadowMatrixOuter1"></feMergeNode>
                <feMergeNode in="SourceGraphic"></feMergeNode>
            </feMerge>
        </filter>
    </defs>
    <g id="Page-1" stroke="none" stroke-width="1" fill="none" fill-rule="evenodd">
        <g id="Landing-Page-MC" transform="translate(-866.000000, -1392.000000)" fill-rule="nonzero">
            <g id="001-portfolio" filter="url(#filter-1)" transform="translate(925.000000, 1421.000000)">
                <path d="M531,41.2850825 L531,371 L158.288215,371 L97.209326,365.081711 L36.4915594,370.998932 L15.1735654,370.998932 C6.79402213,371 0,364.206787 0,355.827174 L0,41.2850825 L268.575954,27 L531,41.2850825 Z" id="Shape" fill="#DDEAFB"></path>
                <polygon id="Shape" fill="#CBE2FF" points="506 32 506 371 531 371 531 41.8124843"></polygon>
                <path d="M479.828288,0 L489,21 L479.828288,42 L0,42 L0,15.3614216 C0,6.87705382 6.78804913,7.68549959e-15 15.1602255,7.68549959e-15 L479.828288,0 Z" id="Shape" fill="#0473CE"></path>
                <path d="M531,15.3614216 L531,42 L480,42 L480,0 L515.751537,0 C524.172442,0 531,6.87705382 531,15.3614216 Z" id="Shape" fill="#FE646F"></path>
                <path d="M515.657409,7.68549959e-15 L490,0 C498.473967,7.68549959e-15 505.342591,6.87813546 505.342591,15.3625032 L505.342591,42 L531,42 L531,15.3614216 C531,6.87705382 524.130296,0 515.657409,7.68549959e-15 Z" id="Shape" fill="#FD4755"></path>
                <path d="M158,82.5656716 L158,204.29706 L96.8234211,212 L36,204.29706 L36,82.5656716 C36,78.941762 38.964386,76 42.6029825,76 L151.407719,76 C155.046316,76 158,78.941762 158,82.5656716 Z" id="Shape" fill="#528FD8"></path>
                <path d="M158,204 L158,253.102215 C158,257.461102 154.500526,261 150.177018,261 L43.8336842,261 C39.5101754,261 36,257.461102 36,253.102215 L36,204 L158,204 Z" id="Shape" fill="#FFF9DF"></path>
                <path d="M158,370 L36,370 L36,299.54892 C36,295.931877 38.953736,293 42.5977473,293 L151.401182,293 C155.045194,293 157.99893,295.931877 157.99893,299.54892 L158,370 Z" id="Shape" fill="#A274BF"></path>
                <path d="M328,82.5657231 L328,134.867676 L267,144 L206,134.867676 L206,82.5657231 C206,78.941785 208.953943,76 212.592859,76 L321.407141,76 C325.046057,76 328,78.941785 328,82.5657231 Z" id="Shape" fill="#A274BF"></path>
                <path d="M328,231.572112 L328,283.840109 L269.508711,290 L206,283.840109 L206,231.572112 C206,227.939875 208.953943,225 212.592859,225 L321.407141,225 C325.046057,225 328,227.939875 328,231.572112 Z" id="Shape" fill="#82AEE3"></path>
                <path d="M496,82.5657231 L496,134.867676 L434.931509,144 L374,134.867676 L374,82.5657231 C374,78.941785 376.953684,76 380.602982,76 L489.397018,76 C493.046316,76 496,78.941785 496,82.5657231 Z" id="Shape" fill="#FE646F"></path>
                <g id="Group" transform="translate(206.000000, 135.000000)" fill="#FFF9DF">
                    <path d="M121.576103,0.853608247 L121.576103,49.4132474 C121.576103,53.7239691 118.089706,57.2237629 113.782353,57.2237629 L7.83639706,57.2237629 C3.52904412,57.2237629 0.0426470588,53.7239691 0.0426470588,49.4132474 L0.0426470588,0.853608247 L121.576103,0.853608247 Z" id="Shape"></path>
                    <path d="M289.925368,0.853608247 L289.925368,49.4132474 C289.925368,53.7239691 286.428309,57.2237629 282.120956,57.2237629 L176.175,57.2237629 C171.867647,57.2237629 168.38125,53.7239691 168.38125,49.4132474 L168.38125,0.853608247 L289.925368,0.853608247 Z" id="Shape"></path>
                    <path d="M121.576103,149.733557 L121.576103,198.293196 C121.576103,202.603918 118.089706,206.093041 113.782353,206.093041 L7.83639706,206.093041 C3.52904412,206.093041 0.0426470588,202.603918 0.0426470588,198.293196 L0.0426470588,149.733557 L121.576103,149.733557 Z" id="Shape"></path>
                </g>
                <path d="M261.035703,321 L239.964297,321 C235.565881,321 232,317.418133 232,313 C232,308.581867 235.565881,305 239.964297,305 L261.035703,305 C265.434119,305 269,308.581867 269,313 C269,317.418133 265.434119,321 261.035703,321 Z" id="Shape" fill="#FFD15B"></path>
                <path d="M531,273.030023 L531,435.969977 C531,449.246644 520.186552,460 506.835691,460 L284.164309,460 C270.813448,460 260,449.246644 260,435.969977 L260,308.260571 C260,294.99455 270.813448,284.230548 284.164309,284.230548 L388.701446,284.230548 C398.851098,284.230548 407.908699,277.938238 411.398981,268.462509 L412.747985,264.778686 C416.238266,255.302957 425.295868,249 435.44552,249 L506.835691,249 C520.186552,249 531,259.753356 531,273.030023 Z" id="Shape" fill="#FFD15B"></path>
                <path d="M392.822726,427 L300.177274,427 C297.318024,427 295,424.704604 295,421.873265 L295,399.126735 C295,396.295396 297.318024,394 300.177274,394 L392.822726,394 C395.681976,394 398,396.295396 398,399.126735 L398,421.873265 C398,424.704604 395.681976,427 392.822726,427 Z" id="Shape" fill="#FFF9DF"></path>
                <path d="M393.722666,394 L367,394 C369.91451,394 372.277334,396.295396 372.277334,399.126735 L372.277334,421.873265 C372.277334,424.704604 369.91451,427 367,427 L393.722666,427 C396.637177,427 399,424.704604 399,421.873265 L399,399.126735 C399,396.295396 396.637177,394 393.722666,394 Z" id="Shape" fill="#FFF0AD"></path>
                <path d="M507.109596,249 L479,249 C487.766519,249 494.873305,256.14832 494.873305,264.966071 L494.873305,444.033929 C494.873305,452.85168 487.766519,460 479,460 L507.109596,460 C520.309123,460 531,449.246644 531,435.969977 L531,273.030023 C531,259.753356 520.309123,249 507.109596,249 Z" id="Shape" fill="#FFC344"></path>
                <path d="M124.931574,242 L70.0684263,242 C65.6125034,242 62,238.418133 62,234 C62,229.581867 65.6125034,226 70.0684263,226 L124.931574,226 C129.387497,226 133,229.581867 133,234 C133,238.418133 129.387497,242 124.931574,242 Z" id="Shape" fill="#FFD15B"></path>
                <path d="M294.931574,171 L240.068426,171 C235.612503,171 232,167.418133 232,163 C232,158.581867 235.612503,155 240.068426,155 L294.931574,155 C299.387497,155 303,158.581867 303,163 C303,167.418133 299.387497,171 294.931574,171 Z" id="Shape" fill="#FFD15B"></path>
                <path d="M462.930498,171 L408.068426,171 C403.612503,171 400,167.418133 400,163 C400,158.581867 403.612503,155 408.068426,155 L462.931574,155 C467.387497,155 471,158.581867 471,163 C471,167.418133 467.386421,171 462.930498,171 Z" id="Shape" fill="#FFD15B"></path>
                <path d="M493.968377,289 L442.031623,289 C437.596025,289 434,285.418133 434,281 C434,276.581867 437.596025,273 442.031623,273 L493.968377,273 C498.403975,273 502,276.581867 502,281 C502,285.418133 498.403975,289 493.968377,289 Z" id="Shape" fill="#528FD8"></path>
            </g>
        </g>
    </g>
</svg>

<svg xmlns="http://www.w3.org/2000/svg" viewBox="0 0 574 578"><defs><filter id="a" width="139.5%" height="145.7%" x="-19.8%" y="-16.3%" filterUnits="objectBoundingBox"><feOffset dy="30" in="SourceAlpha" result="shadowOffsetOuter1"/><feGaussianBlur in="shadowOffsetOuter1" result="shadowBlurOuter1" stdDeviation="30"/><feColorMatrix in="shadowBlurOuter1" result="shadowMatrixOuter1" values="0 0 0 0 0.305882353 0 0 0 0 0.450980392 0 0 0 0 0.874509804 0 0 0 0.4 0"/><feMerge><feMergeNode in="shadowMatrixOuter1"/><feMergeNode in="SourceGraphic"/></feMerge></filter></defs><g fill="none" fill-rule="nonzero" stroke="none" stroke-width="1" filter="url(#a)" transform="translate(-866 -1392) translate(925 1421)"><path fill="#DDEAFB" d="M531 41.285V371H158.288l-61.079-5.918-60.717 5.917H15.174C6.794 371 0 364.207 0 355.827V41.285L268.576 27 531 41.285z"/><path fill="#CBE2FF" d="M506 32 506 371 531 371 531 41.8124843z"/><path fill="#0473CE" d="M479.828 0 489 21l-9.172 21H0V15.361C0 6.877 6.788 0 15.16 0h464.668z"/><path fill="#FE646F" d="M531 15.361V42h-51V0h35.752C524.172 0 531 6.877 531 15.361z"/><path fill="#FD4755" d="M515.657 0H490c8.474 0 15.343 6.878 15.343 15.363V42H531V15.361C531 6.877 524.13 0 515.657 0z"/><path fill="#528FD8" d="M158 82.566v121.731L96.823 212 36 204.297V82.566C36 78.942 38.964 76 42.603 76h108.805c3.638 0 6.592 2.942 6.592 6.566z"/><path fill="#FFF9DF" d="M158 204v49.102c0 4.36-3.5 7.898-7.823 7.898H43.834C39.51 261 36 257.461 36 253.102V204h122z"/><path fill="#A274BF" d="M158 370H36v-70.451c0-3.617 2.954-6.549 6.598-6.549H151.4c3.644 0 6.598 2.932 6.598 6.549L158 370zM328 82.566v52.302L267 144l-61-9.132V82.566c0-3.624 2.954-6.566 6.593-6.566h108.814c3.64 0 6.593 2.942 6.593 6.566z"/><path fill="#82AEE3" d="M328 231.572v52.268L269.509 290 206 283.84v-52.268c0-3.632 2.954-6.572 6.593-6.572h108.814c3.64 0 6.593 2.94 6.593 6.572z"/><path fill="#FE646F" d="M496 82.566v52.302L434.932 144 374 134.868V82.566c0-3.624 2.954-6.566 6.603-6.566h108.794c3.65 0 6.603 2.942 6.603 6.566z"/><g fill="#FFF9DF"><path d="M121.576.854v48.56c0 4.31-3.486 7.81-7.794 7.81H7.836c-4.307 0-7.793-3.5-7.793-7.81V.853h121.533zM289.925.854v48.56c0 4.31-3.497 7.81-7.804 7.81H176.175c-4.307 0-7.794-3.5-7.794-7.81V.853h121.544zM121.576 149.734v48.56c0 4.31-3.486 7.799-7.794 7.799H7.836a7.793 7.793 0 0 1-7.793-7.8v-48.56h121.533z" transform="translate(206 135)"/></g><path fill="#FFD15B" d="M261.036 321h-21.072c-4.398 0-7.964-3.582-7.964-8s3.566-8 7.964-8h21.072c4.398 0 7.964 3.582 7.964 8s-3.566 8-7.964 8z"/><path fill="#FFD15B" d="M531 273.03v162.94c0 13.277-10.813 24.03-24.164 24.03H284.164C270.814 460 260 449.247 260 435.97V308.26c0-13.265 10.813-24.03 24.164-24.03h104.537c10.15 0 19.208-6.292 22.698-15.767l1.349-3.684c3.49-9.476 12.548-15.779 22.698-15.779h71.39c13.35 0 24.164 10.753 24.164 24.03z"/><path fill="#FFF9DF" d="M392.823 427h-92.646c-2.859 0-5.177-2.295-5.177-5.127v-22.746c0-2.832 2.318-5.127 5.177-5.127h92.646c2.859 0 5.177 2.295 5.177 5.127v22.746c0 2.832-2.318 5.127-5.177 5.127z"/><path fill="#FFF0AD" d="M393.723 394H367c2.915 0 5.277 2.295 5.277 5.127v22.746c0 2.832-2.362 5.127-5.277 5.127h26.723c2.914 0 5.277-2.295 5.277-5.127v-22.746c0-2.832-2.363-5.127-5.277-5.127z"/><path fill="#FFC344" d="M507.11 249H479c8.767 0 15.873 7.148 15.873 15.966v179.068c0 8.818-7.106 15.966-15.873 15.966h28.11c13.2 0 23.89-10.753 23.89-24.03V273.03c0-13.277-10.69-24.03-23.89-24.03z"/><path fill="#FFD15B" d="M124.932 242H70.068c-4.455 0-8.068-3.582-8.068-8s3.613-8 8.068-8h54.864c4.455 0 8.068 3.582 8.068 8s-3.613 8-8.068 8zM294.932 171h-54.864c-4.455 0-8.068-3.582-8.068-8s3.613-8 8.068-8h54.864c4.455 0 8.068 3.582 8.068 8s-3.613 8-8.068 8zM462.93 171h-54.862c-4.455 0-8.068-3.582-8.068-8s3.613-8 8.068-8h54.864c4.455 0 8.068 3.582 8.068 8s-3.614 8-8.07 8z"/><path fill="#528FD8" d="M493.968 289h-51.936c-4.436 0-8.032-3.582-8.032-8s3.596-8 8.032-8h51.936c4.436 0 8.032 3.582 8.032 8s-3.596 8-8.032 8z"/></g></svg>
